!! 00000] TT[WS
!!!OTL: Da Lieshen  Tuguen
!!!ARE: Asia, China, Shanxi Dingxiang
!! Ethnic Group: Han
!! WI, 268 (2)
!!!SCT: J0318
!!!YEM: Copyright 1995, estate of Helmut Schaffrath.
**kern
*ICvox
*Ivox
*M2/4
*k[b-e-]
*B-:
{8ccc
8fff
8ddd
16ddd
16ccc
=1
8fff
8bb-
4ccc}
=2
{8gg
16gg
16bb-
8gg
16gg
16ff
=3
16gg
16ff
16ee-
16dd
4ff}
=4
{8ff
8gg
16ff
16gg
16ff
16dd
=5
16cc
16cc
16cc
16dd
8.fff
16ddd
=6
8ddd
4.ccc}
=7
{16ccc
16fff
16ccc
16bb-
16gg
16bb-
16gg
16ff
=8
8.ee-
16ff
8.bb-
16gg
=9
16ff
16gg
16ff
16dd
8.cc
16b-
=10
2cc}
==
!!!AGN: Xiaodiao. XÅshi
!!!ONB: ESAC (Essen Associative Code) Database: CHINA
!!!AMT: simple duple
!!!AIN: vox
!!!EED: Helmut Schaffrath
!!!EEV: 1.0
*-
